static/img/kroki/de649baeaf2dd04d37e03c201c15017d.svg

<?xml version="1.0" encoding="us-ascii" standalone="no"?><svg xmlns="http://www.w3.org/2000/svg" xmlns:xlink="http://www.w3.org/1999/xlink" contentStyleType="text/css" height="152px" preserveAspectRatio="none" style="width:291px;height:152px;" version="1.1" viewBox="0 0 291 152" width="291px" zoomAndPan="magnify"><defs/><g><!--class azure_mysql_server--><g id="elem_azure_mysql_server"><rect codeLine="23" fill="#3D176E" height="39.7891" id="azure_mysql_server" rx="2.5" ry="2.5" style="stroke:#000D19;stroke-width:0.5;" width="208" x="41.5" y="7"/><ellipse cx="56.5" cy="26.8945" fill="#ADD1B2" rx="11" ry="11" style="stroke:#181818;stroke-width:1.0;"/><path d="M59.4688,32.5352 Q58.8906,32.832 58.25,32.9727 Q57.6094,33.1289 56.9063,33.1289 Q54.4063,33.1289 53.0781,31.4883 Q51.7656,29.832 51.7656,26.707 Q51.7656,23.582 53.0781,21.9258 Q54.4063,20.2695 56.9063,20.2695 Q57.6094,20.2695 58.25,20.4258 Q58.9063,20.582 59.4688,20.8789 L59.4688,23.5977 Q58.8438,23.0195 58.25,22.7539 Q57.6563,22.4727 57.0313,22.4727 Q55.6875,22.4727 55,23.5508 Q54.3125,24.6133 54.3125,26.707 Q54.3125,28.8008 55,29.8789 Q55.6875,30.9414 57.0313,30.9414 Q57.6563,30.9414 58.25,30.6758 Q58.8438,30.3945 59.4688,29.8164 L59.4688,32.5352 Z " fill="#000000"/><text fill="#D9B8FF" font-family="Helvetica" font-size="17" lengthAdjust="spacing" textLength="166" x="75.5" y="32.7798">azure_mysql_server</text></g><!--class azure_mysql_server_log_file--><g id="elem_azure_mysql_server_log_file"><rect codeLine="26" fill="#3D176E" height="39.7891" id="azure_mysql_server_log_file" rx="2.5" ry="2.5" style="stroke:#000D19;stroke-width:0.5;" width="277" x="7" y="106.79"/><ellipse cx="22" cy="126.6845" fill="#ADD1B2" rx="11" ry="11" style="stroke:#181818;stroke-width:1.0;"/><path d="M24.9688,132.3252 Q24.3906,132.622 23.75,132.7627 Q23.1094,132.9189 22.4063,132.9189 Q19.9063,132.9189 18.5781,131.2783 Q17.2656,129.622 17.2656,126.497 Q17.2656,123.372 18.5781,121.7158 Q19.9063,120.0595 22.4063,120.0595 Q23.1094,120.0595 23.75,120.2158 Q24.4063,120.372 24.9688,120.6689 L24.9688,123.3877 Q24.3438,122.8095 23.75,122.5439 Q23.1563,122.2627 22.5313,122.2627 Q21.1875,122.2627 20.5,123.3408 Q19.8125,124.4033 19.8125,126.497 Q19.8125,128.5908 20.5,129.6689 Q21.1875,130.7314 22.5313,130.7314 Q23.1563,130.7314 23.75,130.4658 Q24.3438,130.1845 24.9688,129.6064 L24.9688,132.3252 Z " fill="#000000"/><text fill="#D9B8FF" font-family="Helvetica" font-size="17" lengthAdjust="spacing" textLength="235" x="41" y="132.5698">azure_mysql_server_log_file</text></g><!--link azure_mysql_server to azure_mysql_server_log_file--><g id="link_azure_mysql_server_azure_mysql_server_log_file"><path codeLine="29" d="M145.5,47.22 C145.5,64.36 145.5,83.27 145.5,100.41 " fill="none" id="azure_mysql_server-to-azure_mysql_server_log_file" style="stroke:#1A83AF;stroke-width:2.0;"/><polygon fill="#1A83AF" points="145.5,106.41,149.5,97.41,145.5,101.41,141.5,97.41,145.5,106.41" style="stroke:#1A83AF;stroke-width:2.0;"/></g><!--SRC=[XP31Ji9048RlVOfDE9DG6mKk9hK9qGinuisOPkZEqastkpYxXO3ntQLMpTBISft_cvbl9fSS6PPRTs0bbcia6zX2wYqGb2mcCll4A4Di90I8QDeE5qQxgy0IIcIFg7ReP0PjuZMNMQ7HMdRZHG-G5HiobURDU4UWxIb2xJmgKM1jx1p9TUNGa-7pzKo8DjaUEefuEBt33cQ88_qYayc4X_CsSdNLuDt_n4eUaON-qvR6OKUpi-A76hIi2K-oS-XVtklu39nBlM6tNksbSIADT5PVvS3DlgO5AEkliGu9ZJjiCUbSXVCP5zEBy5CV76JrwnWSAyAqFDWFbLgatSddCmY-UjDKcKqgfC86kz0-VXk5yIoA5-_Z-w41mJS0]--></g></svg>

<svg xmlns="http://www.w3.org/2000/svg" width="291" height="152" viewBox="0 0 291 152"><rect width="208" height="39.789" x="41.5" y="7" fill="#3D176E" rx="2.5" ry="2.5" style="stroke:#000d19;stroke-width:.5"/><circle cx="56.5" cy="26.895" r="11" fill="#ADD1B2" style="stroke:#181818;stroke-width:1"/><path d="M59.469 32.535q-.578.297-1.219.438-.64.156-1.344.156-2.5 0-3.828-1.64-1.312-1.657-1.312-4.782t1.312-4.781q1.328-1.656 3.828-1.656.703 0 1.344.156.656.156 1.219.453v2.719q-.625-.578-1.219-.844-.594-.281-1.219-.281-1.343 0-2.031 1.078-.687 1.062-.687 3.156T55 29.879q.688 1.062 2.031 1.062.625 0 1.219-.265.594-.281 1.219-.86z"/><text x="75.5" y="32.78" fill="#D9B8FF" font-family="Helvetica" font-size="17" textLength="166">azure_mysql_server</text><rect width="277" height="39.789" x="7" y="106.79" fill="#3D176E" rx="2.5" ry="2.5" style="stroke:#000d19;stroke-width:.5"/><circle cx="22" cy="126.684" r="11" fill="#ADD1B2" style="stroke:#181818;stroke-width:1"/><path d="M24.969 132.325q-.578.297-1.219.438-.64.156-1.344.156-2.5 0-3.828-1.64-1.312-1.657-1.312-4.782t1.312-4.781q1.328-1.656 3.828-1.656.703 0 1.344.156.656.156 1.219.453v2.719q-.625-.579-1.219-.844-.594-.281-1.219-.281-1.343 0-2.031 1.078-.687 1.062-.687 3.156t.687 3.172q.688 1.062 2.031 1.062.625 0 1.219-.265.594-.281 1.219-.86z"/><text x="41" y="132.57" fill="#D9B8FF" font-family="Helvetica" font-size="17" textLength="235">azure_mysql_server_log_file</text><path fill="none" d="M145.5 47.22v53.19" style="stroke:#1a83af;stroke-width:2"/><path fill="#1A83AF" d="m145.5 106.41 4-9-4 4-4-4z" style="stroke:#1a83af;stroke-width:2"/></svg>
